mimes/scalable/application-x-pem-key.svg

<?xml version="1.0" encoding="UTF-8" standalone="no"?>
<svg
   xmlns:dc="http://purl.org/dc/elements/1.1/"
   xmlns:cc="http://creativecommons.org/ns#"
   xmlns:rdf="http://www.w3.org/1999/02/22-rdf-syntax-ns#"
   xmlns:svg="http://www.w3.org/2000/svg"
   xmlns="http://www.w3.org/2000/svg"
   xmlns:sodipodi="http://sodipodi.sourceforge.net/DTD/sodipodi-0.dtd"
   xmlns:inkscape="http://www.inkscape.org/namespaces/inkscape"
   width="48"
   height="48"
   viewBox="0 0 12.7 12.7"
   version="1.1"
   id="svg4"
   sodipodi:docname="application-pkcs7-mime.svg"
   inkscape:version="0.92.3 (2405546, 2018-03-11)">
  <metadata
     id="metadata10">
    <rdf:RDF>
      <cc:Work
         rdf:about="">
        <dc:format>image/svg+xml</dc:format>
        <dc:type
           rdf:resource="http://purl.org/dc/dcmitype/StillImage" />
        <dc:title></dc:title>
      </cc:Work>
    </rdf:RDF>
  </metadata>
  <defs
     id="defs8" />
  <sodipodi:namedview
     pagecolor="#ffffff"
     bordercolor="#666666"
     borderopacity="1"
     objecttolerance="10"
     gridtolerance="10"
     guidetolerance="10"
     inkscape:pageopacity="0"
     inkscape:pageshadow="2"
     inkscape:window-width="1366"
     inkscape:window-height="715"
     id="namedview6"
     showgrid="false"
     showguides="true"
     inkscape:guide-bbox="true"
     inkscape:snap-global="true"
     inkscape:zoom="3.8964529"
     inkscape:cx="-76.347677"
     inkscape:cy="24.000001"
     inkscape:window-x="0"
     inkscape:window-y="27"
     inkscape:window-maximized="1"
     inkscape:current-layer="svg4" />
  <g
     id="g840">
    <path
       id="path965"
       d="m 7.3492433,0.0566603 c -0.040983,0 -0.078161,0.0127642 -0.1049033,0.0330729 C 7.218411,0.1094229 7.202933,0.1367362 7.201965,0.1667311 7.3445127,0.2235372 7.4736634,0.30302596 7.5802366,0.40909358 7.76971,0.59766786 7.8931916,0.85276088 7.9104491,1.1392812 h 0.00672 v 0.068213 0.1441772 0.1369425 0.1927531 c 0,0.2812905 0.2266883,0.5079794 0.5079795,0.5079794 h 0.1183391 l -5.291e-4,0.00568 h 1.6924064 c 0.329951,0 0.613684,0.1491999 0.819072,0.3731038 V 1.141865 0.56463964 c 0,-0.14064565 -0.05654,-0.26789289 -0.148312,-0.35966798 C 10.814345,0.11319656 10.687101,0.0566603 10.546455,0.0566603 H 9.0462851 7.7864139 Z"
       style="opacity:1;fill:#511717;fill-opacity:1;fill-rule:nonzero;stroke:none;stroke-width:0.50711805;stroke-linecap:round;stroke-linejoin:bevel;stroke-miterlimit:4;stroke-dasharray:none;stroke-opacity:1"
       inkscape:connector-curvature="0" />
    <path
       inkscape:connector-curvature="0"
       id="path833"
       d="m 2.9460732,0.55206094 c -0.6285519,0 -1.134298,0.50626306 -1.134298,1.13481446 v 9.9012056 c 0,0.628551 0.5057461,1.134814 1.134298,1.134814 h 4.2855261 2.522327 c 0.6285527,0 1.1342987,-0.506263 1.1342987,-1.134814 V 3.6728008 h -0.01292 C 10.810197,3.1070068 10.337709,2.6687276 9.7539263,2.6687276 h -1.692403 v 0 l -0.11781,-0.00568 C 7.6627483,2.6495013 7.4357343,2.4363589 7.4357343,2.1550682 V 1.9623107 1.8253682 1.6811909 1.612978 h -0.0067 C 7.3941823,1.0346118 6.9321933,0.5804805 6.3510473,0.55464473 l -5.29e-4,-0.002585 h -0.02015 z"
       style="opacity:1;fill:#333333;fill-opacity:1;fill-rule:nonzero;stroke:none;stroke-width:0.50711805;stroke-linecap:round;stroke-linejoin:bevel;stroke-miterlimit:4;stroke-dasharray:none;stroke-opacity:1" />
    <path
       inkscape:connector-curvature="0"
       id="path901-5"
       d="m 6.4269983,1.0791605 c 0.263277,0.019482 0.470254,0.2359637 0.470255,0.504362 v 0.2563151 0.125057 0.092501 c 0,0.5757933 0.427721,1.0388807 0.982369,1.1136271 v 0 l 1.962134,0.026872 c 0.2812647,0.00385 0.5079787,0.2266886 0.5079797,0.5079793 V 5.7894678 11.68575 c 0,0.281291 -0.226688,0.50798 -0.5079797,0.50798 H 7.2315993 2.8582236 c -0.281291,0 -0.50798,-0.226689 -0.50798,-0.50798 V 1.5892069 c 0,-0.2812907 0.226689,-0.5079794 0.50798,-0.5079794 h 3.5692907 z"
       style="opacity:1;fill:#cccccc;fill-opacity:1;fill-rule:nonzero;stroke:none;stroke-width:0.50711805;stroke-linecap:round;stroke-linejoin:bevel;stroke-miterlimit:4;stroke-dasharray:none;stroke-opacity:1" />
    <path
       id="path51"
       d="M 7.8095563,5.2033881 C 7.7306303,5.1933368 7.6741224,5.2133396 7.6094673,5.2376449 7.5448118,5.2619492 7.4753661,5.2962733 7.3988669,5.3392466 7.2458644,5.4251937 7.0660411,5.5465064 6.8776224,5.6899872 6.5007827,5.9769466 6.0906579,6.3504881 5.8141117,6.7126235 c -0.033314,0.043414 -0.040895,0.1055299 -0.019074,0.1557116 0.1054328,0.2434125 0.2825044,0.5086265 0.4986666,0.7941295 0.00188,0 0,0.00195 0,0.00195 l -3.175351,2.9503474 v 0.635694 H 3.8034846 L 4.0319917,11.038688 V 10.614762 H 4.4886161 L 4.7171229,10.401437 H 5.1737473 L 5.4022541,10.189668 V 9.7657397 L 5.6307611,9.5539719 H 6.0873855 V 9.1304362 l 0.867314,-0.8065863 0.164665,0.1646651 c 0.2855052,0.2161598 0.5511191,0.3932465 0.7945186,0.4986665 0.050182,0.02182 0.1119087,0.014237 0.1553226,-0.019074 C 8.2048745,8.8645043 8.3412751,8.7422086 8.4752239,8.6095817 8.7652712,8.3223908 9.0403551,7.9889668 9.2432715,7.6975004 9.3447275,7.5517692 9.4283959,7.4162256 9.4873496,7.2996572 9.5462945,7.1830927 9.5947765,7.1005325 9.5784409,6.9722728 9.5529565,6.7722041 9.4143042,6.6175552 9.2623461,6.4436315 9.1103877,6.269708 8.9339437,6.0977116 8.8092252,5.9729931 8.6845067,5.8482744 8.5125103,5.6718301 8.338587,5.5198721 8.1646721,5.3679224 8.0096194,5.2288652 7.8095563,5.2033881 Z m 0.3628083,1.0603966 c 0.033021,0 0.066159,0.00425 0.098098,0.013625 2.91e-4,7.85e-5 1.5e-4,6.985e-4 3.969e-4,7.752e-4 0.031896,0.00944 0.062846,0.023246 0.09148,0.042042 2.91e-4,1.804e-4 5.292e-4,6.165e-4 7.673e-4,7.752e-4 0.019235,0.012701 0.036787,0.027445 0.053721,0.044379 0.00847,0.00847 0.016338,0.017387 0.023746,0.026472 0.11113,0.136253 0.1032705,0.3370041 -0.023746,0.4640207 -0.1354722,0.1354722 -0.3550195,0.1354722 -0.4904917,0 C 7.858601,6.7881371 7.8247368,6.7001843 7.8247344,6.6114051 c -2.3e-5,-0.011339 7.17e-5,-0.022962 0.00116,-0.034255 0.00317,-0.033168 0.011438,-0.065999 0.024135,-0.09732 0.016933,-0.041758 0.04243,-0.080581 0.076298,-0.1144482 0.033868,-0.033868 0.072691,-0.059366 0.1144482,-0.076298 0.031319,-0.012699 0.064152,-0.020572 0.09732,-0.023747 0.011295,-0.00108 0.022921,-0.00157 0.034256,-0.00155 z"
       style="color:#000000;fill:#501616;fill-opacity:0.98578198;stroke-width:0.04952345"
       inkscape:connector-curvature="0" />
  </g>
</svg>

<?xml version="1.0" encoding="UTF-8" standalone="no"?><svg xmlns:dc="http://purl.org/dc/elements/1.1/" xmlns:cc="http://creativecommons.org/ns#" xmlns:rdf="http://www.w3.org/1999/02/22-rdf-syntax-ns#" xmlns="http://www.w3.org/2000/svg" width="48" height="48" viewBox="0 0 12.7 12.7"><metadata><rdf:RDF><cc:Work><dc:format>image/svg+xml</dc:format><dc:type rdf:resource="http://purl.org/dc/dcmitype/StillImage"/><dc:title/></cc:Work></rdf:RDF></metadata><path d="M7.35.06a.17.17 0 0 0-.1.03.1.1 0 0 0-.05.08 1.12 1.12 0 0 1 .71.97v.55c0 .27.23.5.52.5h1.81c.33 0 .6.15.81.38V.56a.5.5 0 0 0-.5-.5H7.79z" fill="#511717"/><path d="M2.95.55c-.63 0-1.14.5-1.14 1.14v9.9c0 .63.5 1.13 1.14 1.13H9.75c.63 0 1.14-.5 1.14-1.13V3.67h-.01c-.07-.56-.54-1-1.13-1H7.94a.52.52 0 0 1-.5-.51V1.6h-.01A1.12 1.12 0 0 0 6.35.55h-.02z" fill="#333"/><path d="M6.43 1.08a.5.5 0 0 1 .47.5v.48c0 .57.42 1.04.98 1.11l1.96.03c.28 0 .51.22.51.5v7.99a.5.5 0 0 1-.5.5H2.85a.5.5 0 0 1-.51-.5V1.59c0-.28.23-.5.5-.5h3.58z" fill="#ccc"/><path d="M7.81 5.2a.39.39 0 0 0-.2.04c-.07.02-.13.06-.21.1A5.89 5.89 0 0 0 5.82 6.7a.16.16 0 0 0-.02.16c.1.24.28.5.5.8L3.11 10.6v.64h.68l.23-.21v-.43h.46l.23-.2h.45l.23-.22v-.42l.23-.22h.46v-.42l.86-.8.17.16c.28.21.55.4.8.5.04.02.1.01.15-.02A6.83 6.83 0 0 0 9.49 7.3c.06-.12.1-.2.09-.33-.03-.2-.17-.35-.32-.53l-.45-.47-.47-.45c-.18-.15-.33-.3-.53-.32zm.36 1.06c.04 0 .07 0 .1.02.03 0 .06.02.1.04a.34.34 0 0 1 .07.07.35.35 0 1 1-.27-.13z" color="#000" fill="#501616" fill-opacity=".99"/></svg>
